pp/bell-off_print.svg

<svg viewBox="0 0 20 20" fill="none" xmlns="http://www.w3.org/2000/svg" height="1em" width="1em">
  <path opacity="0.8" fill-rule="evenodd" clip-rule="evenodd" d="M12.5 5.02242C15.3033 5.27504 17.5 7.63098 17.5 10.5V13.4254C18.4211 13.9472 19 14.9279 19 16C19 17.1046 18.1046 18 17 18H13.5C13.5 19.1046 12.6046 20 11.5 20C10.3954 20 9.5 19.1046 9.5 18H6C4.89543 18 4 17.1046 4 16C4 14.9279 4.5789 13.9472 5.5 13.4254V10.5C5.5 7.63098 7.69675 5.27504 10.5 5.02242L10.5 3C10.5 2.44771 10.9477 2 11.5 2C12.0523 2 12.5 2.44772 12.5 3L12.5 5.02242V5.02242Z" fill="currentColor"/>
  <path d="M8 17C8 16.7239 8.22386 16.5 8.5 16.5C8.77614 16.5 9 16.7239 9 17C9 17.5523 9.44772 18 10 18C10.5523 18 11 17.5523 11 17C11 16.7239 11.2239 16.5 11.5 16.5C11.7761 16.5 12 16.7239 12 17C12 18.1046 11.1046 19 10 19C8.89543 19 8 18.1046 8 17Z" fill="black"/>
  <path fill-rule="evenodd" clip-rule="evenodd" d="M17.5 14.5C17.5 13.4279 16.9211 12.4472 16 11.9254V9C16 5.96243 13.5376 3.5 10.5 3.5H9.5C6.46243 3.5 4 5.96243 4 9V11.9254C3.0789 12.4472 2.5 13.4279 2.5 14.5C2.5 15.6046 3.39543 16.5 4.5 16.5H15.5C16.6046 16.5 17.5 15.6046 17.5 14.5ZM15 12.5583L15.2952 12.6908L15.35 12.7155C16.0502 13.0332 16.5 13.7311 16.5 14.5C16.5 15.0523 16.0523 15.5 15.5 15.5H4.5C3.94772 15.5 3.5 15.0523 3.5 14.5C3.5 13.7311 3.94976 13.0332 4.65004 12.7155L4.7048 12.6908L5 12.5583V9C5 6.51472 7.01472 4.5 9.5 4.5H10.5C12.9853 4.5 15 6.51472 15 9V12.5583Z" fill="black"/>
  <path d="M9.5 1.5C9.5 1.22386 9.72386 1 10 1C10.2761 1 10.5 1.22386 10.5 1.5L10.5 4C10.5 4.27614 10.2761 4.5 10 4.5C9.72386 4.5 9.5 4.27614 9.5 4L9.5 1.5Z" fill="black"/>
  <path d="M2.64772 2.88933C2.45246 2.69407 2.45246 2.37748 2.64772 2.18222C2.84298 1.98696 3.15956 1.98696 3.35482 2.18222L19.3548 18.1822C19.5501 18.3775 19.5501 18.6941 19.3548 18.8893C19.1596 19.0846 18.843 19.0846 18.6477 18.8893L2.64772 2.88933Z" fill="black"/>
</svg>

<svg viewBox="0 0 20 20" fill="none" xmlns="http://www.w3.org/2000/svg" height="1em" width="1em">
  <path opacity=".8" fill-rule="evenodd" clip-rule="evenodd" d="M12.5 5.022a5.5 5.5 0 0 1 5 5.478v2.925A2.96 2.96 0 0 1 19 16a2 2 0 0 1-2 2h-3.5a2 2 0 1 1-4 0H6a2 2 0 0 1-2-2 2.96 2.96 0 0 1 1.5-2.575V10.5a5.5 5.5 0 0 1 5-5.478V3a1 1 0 1 1 2 0v2.022Z" fill="currentColor"/>
  <path d="M8 17a.5.5 0 0 1 1 0 1 1 0 1 0 2 0 .5.5 0 0 1 1 0 2 2 0 1 1-4 0Z" fill="#000"/>
  <path fill-rule="evenodd" clip-rule="evenodd" d="M17.5 14.5a2.96 2.96 0 0 0-1.5-2.575V9a5.5 5.5 0 0 0-5.5-5.5h-1A5.5 5.5 0 0 0 4 9v2.925A2.96 2.96 0 0 0 2.5 14.5a2 2 0 0 0 2 2h11a2 2 0 0 0 2-2ZM15 12.558l.295.133.055.024A1.96 1.96 0 0 1 16.5 14.5a1 1 0 0 1-1 1h-11a1 1 0 0 1-1-1c0-.769.45-1.467 1.15-1.784l.055-.025.295-.133V9a4.5 4.5 0 0 1 4.5-4.5h1A4.5 4.5 0 0 1 15 9v3.558Z" fill="#000"/>
  <path d="M9.5 1.5a.5.5 0 0 1 1 0V4a.5.5 0 0 1-1 0V1.5ZM2.648 2.89a.5.5 0 0 1 .707-.708l16 16a.5.5 0 1 1-.707.707l-16-16Z" fill="#000"/>
</svg>
